X:1
T:Scemar sperando
T:Scemar sperando
T:Girolamo Scotto
T:Source : Secondo Libro delle Muse a tre voci---Venetia---G.Scotto---1562. Editor : André bVierendeels (05/06/16).
T:Notes : Original clefs : C2, C4, F4 Editorial accidentals above the staff Original note values have been halved "Terzi toni" 
T:©
T:©
T:©
T:©
T:©
T:©
T:©
T:©
C:Girolamo Scotto
Z:©
%%score [ 1 2 3 ]
L:1/8
Q:1/4=94
M:2/2
K:C
V:1 treble nm="Alto" snm="A"
V:2 treble-8 nm="Tenor" snm="T"
V:3 bass nm="Bass" snm="B"
V:1
 A4 A2 A2 | A6 A2 | G3 F E4- | E2 G2 G2 G2 | F6 E2- | E2 D2 E4- | E4 z2 E2 | E2 E2 G4- | %8
w: Sce- mar spe-|rand' i|piu _ _|_ do- glio si'ac-|cen- *|* * ti,|_ che|mai s'u- di-|
 G2 G2 F3 G | A6 A2 | E2 G2 A4 | G3 F E2 A2- |"^#" A2 G2 A4 | E4 E2 E2 | F4 D4 | E2 G3 FED | %16
w: * ro'il mio _|_ pron-|to pen- sie-||* * ro|mi scors' a|pun- to|a l'u- * * *|
 C2 B,2 C2 E2- | E2 D2 E4 | F4 F2 F2 | E2 G2 G2 D2 | E2 E2 F4 | E2 A4 G2 | A6 G2 | F4 E2 A2- | %24
w: * sa- to sen-|* tie- ro,|dov' e or-|di- nat' in ciel|ch'io mi la-|men- ti, ch'io|mi la-|men- * *|
"^#" A2 G2 A4- | A8 || E4 E2 E2 | E2 E3 D E2 | F2 E3 F G2 | D2 G4 A2- | AG G4 F2 | G2 D2 D2 D2 | %32
w: * * ti.|_|Ma poi ch'a|un pun- * *|to gl'oc- * *|chi miei pre-|* * sen- *|ti, co- nob- ber|
 G2 G2 F2 F2 | E2 F3 EFG | A4 D2 F2 | E2 E2 D2 F2- | FE E3 D D2 | E2 C2 G2 G2- | GF/E/ F2 G4- | %39
w: di lor vi- 'il|lu- me ve _ _|ro, il lu|me ve _ _|_ _ _ _ _|ro, il lu me|_ _ _ ve- ro|
 G2 D2 E4- | E2 D2 E3 F | G3 F E2 D2 | C4 B,2 E2- | E2 D2 E4 | z2 C2 D2 E2 | F4 E2 E2- | %46
w: _ cli chie-|* s'in fio- ca|voc' e piant' al-|tie- * *|* * ro,|e piant' al-|tie- ro, re-|
 E2 D2 E2 G2 | G2 F2 G2 D2 | D2 A2 G2 F2 | E4 D2 G2 | G2 F2 E2 D2- | D2 D2 D2 G2 | F2 E3 D/C/ D2 | %53
w: * cu- so il|mio bel sol le-|varm' a mor- *|te, re- cu-|so il mio bel|_ sol le- varm'|a mor- * * *|
 E4 G4 | G2 G2 A2 G2 | E3 F G2 A2- | AG G4 F2 | G2 D2 D2 D2 | F2 F2 E3 D | E3 F G2 D2 | F4 E4 | %61
w: te, per-|che nel mod' u-|sat'ogn' _ _ hor|_ s'in- sia- *|mo, quel- la pia-|ga pro- fon- *|da _ _ che|mai cel-|
 D2 A2 A2 A2 | F2 F2 E2 A2- | A2 G2 F2 E2 | G2 A2 E4- | E2 G2 G2 G2 | A2 A2 D2 D2 | E2 E2 F4- | %68
w: lo l'al- tro- si|pens' al mio do-|* * * lor|si for- te,|_ et pie- to-|sa sce- mar l'ar-|den- te fiam-|
 F2 E4 D2 | E4 z2 E2 | D2 B,2 C4 | B,2 D2 D2 D2 | D4 E4- | E2 E2 F2 A2 | A2 G2 A2 E2- | EF G2 F4- | %76
w: |me, l'ar-|den- te fiam-|me mi fur l'a-|mi che|_ le la- gri-|me del cie- *||
 F2 E4 D2 | E2 G3 E A2- | A2 G2 A2 F2- | F2 E2 F4 | E8 |] %81
w: |* lo, del cie-|||lo.|
V:2
 d4 d2 d2 | c4 A4 | B4 c2 G2 | G2 G2 c3 B | A6 G2 | A4 B4 | c8 | z2 e2 e2 e2 | d6 d2 | %9
w: Sce- mar spe-|rand'- i|_ piu do-|glio si'ac- cen- *|||ti,|che mai s'u-|di- ro'il|
 c3 B A2 c2- | cd e3 d/c/ d2 | e2 B2 c2 c2 | B4 A4 | c4 c2 c2 | A4 B4 | c4 G4- | G4 F2 E2 | F4 E4 | %18
w: mi- * * *||o, pron- to pen-|sie- ro|mi scors' a|pun- to'a|l'u- sa-|* to sen-|tie- ro,|
 A4 A2 A2 | c2 c2 B2 B2 | c2 c2 A3 B | c4 d4 | e2 f4 e2- | e2 d2 c4 | B4 A4- | A8 || B4 B2 B2 | %27
w: dov' e or-|di- nat' in ciel|ch'io mi la- *|men- ti,|ch'io mi la-|* * men-|* ti.|_|Ma poi ch'a|
 c2 G2 A2 c2- | c2 c2 B4- | B2 c2 B2 A2 | B2 c2 A4 | B8- | B4 z2 A2 | A2 A2 d2 d2 | c2 c2 B2 d2- | %35
w: un pun- to gl'oc-|* chi miei|_ pre- sen- *||ti,|_ co-|nob- ber di lor|vit' il lu- me|
 d2 c2 d4 | z2 c2 B4- | B2 A2 B3 c | d3 c B4- | B2 B2 c4- | c2 B2 c2 G2- | G2 c4 B2- | B2 A4 G2 | %43
w: _ ve- ro,|cli chie-|* s'in fio- ca|voc' e piant'|_ al- tie-|* * ro, e|_ piant' al-|* tie- *|
 A4 B2 c2 | G2 A3 B c2- | cB/A/ B2 c4 | G8 | A4 z2 B2- | B2 A2 B2 d2 | d2 c2 d2 B2 | c2 d2 G2 B2- | %51
w: ro, e piant'|al- tie- * *|||ro, re-|* cu- so il|mio bel sol le-|varm' a mor- *|
 B2 A2 B2 c2 | A2 G2 A4 | B4 z2 c2 | c2 c2 c2 c2 | c3 c B2 c2- | cBAG A4 | B8 | z2 A2 A2 A2 | %59
w: * te, le- varm'|a mor- *|te, per-|che nel mod' u-|sat' ogn' hor s'in-|* * * * sia-|mo,|quel- la pia-|
 c2 c2 B2 B2 | A2 d4 c2 | d4 z2 A2 | A2 A2 c2 AB | cd e2 ABcd | e2 d2 G2 c2 | c2 c2 B2 c2- | %66
w: ga pro- fon- da|che mai cel-|lo l'al-|tro si pens' al _|_ _ _ mio _ _ _|_ do- lor, et|pie- to- sa sce-|
 c2 BA B2 B2 | c2 c2 A2 A2- | A2 c4 BA | B2 c2 B2 A2- | A2 G2 A4 | z2 A2 A2 A2 | A4 c4- | %73
w: mar _ _ _ l'ar-|den- te fiam- me,|_ l'ar- * *|* den- te fiam-|* * me,|mi fur l'a-|mi- che|
 c2 B2 A2 A2 | B2 B2 A3 B | cd e4 d2 | c2 B2 A4 | B6 c2 | B4 A4 | A8 | A8 |] %81
w: _ le la- gri-|me del cie- *||, le la-|* gri|me del|cie-|lo.|
V:3
 D,4 D,2 D,2 | F,6 F,2 | E,3 D, C,4- | C,2 C,2 C,2 C,2 | D,4 A,,2 E,2 | F,4 E,3 D, | %6
w: Sce- mar spe-|rand' i|piu _ _|_ do- glio si'ac-|cen- ti, ac-|cen- * *|
 C,2 A,,2 A,,2 A,,2 | C,6 C,2 | G,4 D,3 E, | F,4 F,2 F,2 | C,4 F,4 | E,3 D, C,B,, A,,2 | E,4 A,,4 | %13
w: ti, che mai s'u-|di- ro'il|mio pron- *|* to pen-|sie- *||* ro|
 A,4 A,2 A,2 | D,4 G,4 | C,6 C,2 | E,4 A,,4 | D,4 A,,4 | F,4 F,2 F,2 | C,2 C,2 G,2 G,2 | %20
w: mi scors' a|pun- to'a|l'u- sa-|to sen|tie- ro,|dov' e or-|di- nat' in ciel|
 C,2 C,2 D,4 | A,4 B,4 | A,2 D,2 F,2 C,2 | D,4 A,,B,,C,D, | E,4 A,,4- |"^#" A,,8 || E,4 E,2 E,2 | %27
w: ch'io mi la-|men- *|tin ch'io mi la-|men- * * * *|* ti.|_|Ma oii ch'a|
 A,,2 C,2 A,,2 A,2- | A,2 A,2 E,3 F, | G,2 C,2 E,2 F,2 | E,2 C,2 D,4 | G,8- | G,4 D,4 | %33
w: un pun- to gl'oc-|* chi miei _|_ pre- sen- *|ti, pre- sen-||* ti,|
 z2 D,2 D,2 D,2 | F,2 F,2 G,2 D,2 |"^b" A,2 A,2 B,4 | A,4 G,3 F, | E,2 F,2 E,4 | D,2 D,2 E,3 F, | %39
w: co- nob- ber|di do- lor vit'|il lu- me|ve- * *|ro, cli chie-|* s'in fio- ca|
 G,4 C,3 D, | E,F, G,2 C,4- | C,4 z4 | z2 A,,2 E,2 E,2 | F,4 E,2 C,2- | C,2 F,4 E,2 | D,4 C,4- | %46
w: voc'- * *|* * * ce,|_|e piant' al-|tie- ro'e piant'|_ al- tie-|ro'e piant'|
 C,2 B,,2 C,2 E,2 | D,4 G,4- | G,2 F,2 E,2 D,2 | A,4 z2 E,2- | E,2 D,2 E,2 G,2 | G,2 F,2 G,2 C,2 | %52
w: _ al- tie- *|||ro, re-|cu so il mio|bel sol le- varm'|
 D,2 E,2 F,4 | E,4 C,4 | C,2 C,2 F,2 E,2 | A,4 G,2 F,2 | E,4 D,4 | G,8 | D,4 z2 A,,2- | %59
w: a- mor- *|te, per-|che nel mod' u-|sat' ogn' hor|s'in- sia-||mo, quel|
 A,,2 E,4 G,2 | F,2 D,2 A,2 A,2 | D,3 E, F,2 D,2- | D,E,F,G, A,2 F,2 | F,2 E,2 D,2 C,2- | %64
w: _ la pia-|ga pro- fon- da|che _ mai cel-|* * * * lo, al|mio do- lor si|
 C,2 B,,2 C,4 | z2 E,2 E,2 E,2 | F,2 F,2 G,2 G,2 | C,2 C,2 D,3 E, | F,G, A,2 F,4 | E,4 D,2 C,2 | %70
w: _ for- te,|et pie- to-|sa sce- mar l'ar-|den- te fiam- *|* * me, l'ar-|den- te fiam-|
 B,,4 A,,4 | z2 D,2 D,2 D,2 | D,4 A,,2 A,2 | A,2 G,2 F,2 F,2 | E,4 A,,4 | z2 C,2 D,2 D,2 | %76
w: * me,|mi fur l'a-|mi- che le|la- gri- me del|cie- lo,|le la- gri-|
 E,4 F,4 | E,4 E,2 A,,2 | E,4 A,,2 D,2- | D,2 C,2 D,4 | A,,8 |] %81
w: me del|cie- lo, del|cie- * *||lo.|

